TileServer und Tiles/svg/8/45_2.svg

<?xml version='1.0' encoding='UTF-8' standalone='no'?>
<svg viewBox="0 0 497 279" width="497pt" height="279pt" xmlns="http://www.w3.org/2000/svg" xmlns:xlink="http://www.w3.org/1999/xlink">
 <defs overflow="visible" style="stroke:none;">
  <path id="glyph0-8" d="M 4.34375 -1.484375 C 4.34375 -0.960938 4.148438 -0.566406 3.765625 -0.296875 C 3.378906 -0.0351562 2.859375 0.09375 2.203125 0.09375 C 1.828125 0.09375 1.503906 0.0625 1.234375 0 C 0.960938 -0.0507812 0.722656 -0.128906 0.515625 -0.234375 L 0.515625 -1.046875 C 0.734375 -0.929688 0.992188 -0.828125 1.296875 -0.734375 C 1.597656 -0.648438 1.90625 -0.609375 2.21875 -0.609375 C 2.664062 -0.609375 2.988281 -0.679688 3.1875 -0.828125 C 3.382812 -0.972656 3.484375 -1.164062 3.484375 -1.40625 C 3.484375 -1.53125 3.445312 -1.644531 3.375 -1.75 C 3.300781 -1.863281 3.171875 -1.972656 2.984375 -2.078125 C 2.796875 -2.179688 2.523438 -2.300781 2.171875 -2.4375 C 1.828125 -2.570312 1.53125 -2.707031 1.28125 -2.84375 C 1.03125 -2.976562 0.835938 -3.132812 0.703125 -3.3125 C 0.578125 -3.5 0.515625 -3.742188 0.515625 -4.046875 C 0.515625 -4.492188 0.695312 -4.835938 1.0625 -5.078125 C 1.4375 -5.328125 1.921875 -5.453125 2.515625 -5.453125 C 2.847656 -5.453125 3.15625 -5.421875 3.4375 -5.359375 C 3.71875 -5.296875 3.984375 -5.207031 4.234375 -5.09375 L 3.9375 -4.40625 C 3.707031 -4.5 3.46875 -4.578125 3.21875 -4.640625 C 2.96875 -4.703125 2.710938 -4.734375 2.453125 -4.734375 C 2.097656 -4.734375 1.820312 -4.675781 1.625 -4.5625 C 1.4375 -4.445312 1.34375 -4.289062 1.34375 -4.09375 C 1.34375 -3.945312 1.382812 -3.820312 1.46875 -3.71875 C 1.5625 -3.613281 1.707031 -3.507812 1.90625 -3.40625 C 2.113281 -3.3125 2.390625 -3.195312 2.734375 -3.0625 C 3.066406 -2.9375 3.351562 -2.804688 3.59375 -2.671875 C 3.832031 -2.546875 4.015625 -2.382812 4.140625 -2.1875 C 4.273438 -2 4.34375 -1.765625 4.34375 -1.484375 Z M 4.34375 -1.484375 "/>
  <path id="glyph0-7" d="M 1.734375 0 L 0.84375 0 L 0.84375 -7.59375 L 1.734375 -7.59375 Z M 1.734375 0 "/>
  <path id="glyph0-6" d="M 1.875 0 L 0.96875 0 L 0.96875 -7.140625 L 4.953125 -7.140625 L 4.953125 -6.34375 L 1.875 -6.34375 L 1.875 -3.8125 L 4.765625 -3.8125 L 4.765625 -3.03125 L 1.875 -3.03125 Z M 1.875 0 "/>
  <path id="glyph0-5" d="M 5.515625 -2.6875 C 5.515625 -1.800781 5.285156 -1.113281 4.828125 -0.625 C 4.378906 -0.144531 3.773438 0.09375 3.015625 0.09375 C 2.535156 0.09375 2.109375 -0.0078125 1.734375 -0.21875 C 1.367188 -0.4375 1.078125 -0.753906 0.859375 -1.171875 C 0.648438 -1.585938 0.546875 -2.09375 0.546875 -2.6875 C 0.546875 -3.570312 0.769531 -4.253906 1.21875 -4.734375 C 1.664062 -5.210938 2.273438 -5.453125 3.046875 -5.453125 C 3.523438 -5.453125 3.945312 -5.34375 4.3125 -5.125 C 4.6875 -4.914062 4.976562 -4.601562 5.1875 -4.1875 C 5.40625 -3.78125 5.515625 -3.28125 5.515625 -2.6875 Z M 1.453125 -2.6875 C 1.453125 -2.050781 1.578125 -1.546875 1.828125 -1.171875 C 2.078125 -0.804688 2.476562 -0.625 3.03125 -0.625 C 3.570312 -0.625 3.96875 -0.804688 4.21875 -1.171875 C 4.46875 -1.546875 4.59375 -2.050781 4.59375 -2.6875 C 4.59375 -3.320312 4.46875 -3.816406 4.21875 -4.171875 C 3.96875 -4.535156 3.566406 -4.71875 3.015625 -4.71875 C 2.472656 -4.71875 2.078125 -4.535156 1.828125 -4.171875 C 1.578125 -3.816406 1.453125 -3.320312 1.453125 -2.6875 Z M 1.453125 -2.6875 "/>
  <path id="glyph0-4" d="M 1.734375 -7.59375 L 1.734375 -5.375 C 1.734375 -5.101562 1.71875 -4.851562 1.6875 -4.625 L 1.734375 -4.625 C 1.910156 -4.894531 2.144531 -5.097656 2.4375 -5.234375 C 2.738281 -5.378906 3.0625 -5.453125 3.40625 -5.453125 C 4.0625 -5.453125 4.550781 -5.296875 4.875 -4.984375 C 5.207031 -4.671875 5.375 -4.171875 5.375 -3.484375 L 5.375 0 L 4.5 0 L 4.5 -3.4375 C 4.5 -4.289062 4.097656 -4.71875 3.296875 -4.71875 C 2.703125 -4.71875 2.289062 -4.546875 2.0625 -4.203125 C 1.84375 -3.867188 1.734375 -3.390625 1.734375 -2.765625 L 1.734375 0 L 0.84375 0 L 0.84375 -7.59375 Z M 1.734375 -7.59375 "/>
  <path id="glyph0-3" d="M 2.875 -5.453125 C 3.53125 -5.453125 4.015625 -5.304688 4.328125 -5.015625 C 4.640625 -4.734375 4.796875 -4.28125 4.796875 -3.65625 L 4.796875 0 L 4.15625 0 L 3.984375 -0.765625 L 3.953125 -0.765625 C 3.710938 -0.460938 3.460938 -0.242188 3.203125 -0.109375 C 2.953125 0.0234375 2.601562 0.09375 2.15625 0.09375 C 1.664062 0.09375 1.257812 -0.03125 0.9375 -0.28125 C 0.613281 -0.539062 0.453125 -0.941406 0.453125 -1.484375 C 0.453125 -2.023438 0.660156 -2.4375 1.078125 -2.71875 C 1.503906 -3.007812 2.15625 -3.171875 3.03125 -3.203125 L 3.9375 -3.234375 L 3.9375 -3.546875 C 3.9375 -3.992188 3.835938 -4.300781 3.640625 -4.46875 C 3.453125 -4.644531 3.179688 -4.734375 2.828125 -4.734375 C 2.546875 -4.734375 2.28125 -4.691406 2.03125 -4.609375 C 1.78125 -4.523438 1.539062 -4.429688 1.3125 -4.328125 L 1.046875 -4.984375 C 1.285156 -5.117188 1.5625 -5.226562 1.875 -5.3125 C 2.195312 -5.40625 2.53125 -5.453125 2.875 -5.453125 Z M 3.9375 -2.625 L 3.140625 -2.59375 C 2.472656 -2.5625 2.007812 -2.453125 1.75 -2.265625 C 1.5 -2.078125 1.375 -1.816406 1.375 -1.484375 C 1.375 -1.179688 1.460938 -0.957031 1.640625 -0.8125 C 1.828125 -0.675781 2.0625 -0.609375 2.34375 -0.609375 C 2.800781 -0.609375 3.179688 -0.734375 3.484375 -0.984375 C 3.785156 -1.234375 3.9375 -1.617188 3.9375 -2.140625 Z M 3.9375 -2.625 "/>
  <path id="glyph0-2" d="M 2.75 0.09375 C 2.082031 0.09375 1.546875 -0.132812 1.140625 -0.59375 C 0.742188 -1.0625 0.546875 -1.753906 0.546875 -2.671875 C 0.546875 -3.585938 0.75 -4.28125 1.15625 -4.75 C 1.5625 -5.21875 2.097656 -5.453125 2.765625 -5.453125 C 3.171875 -5.453125 3.503906 -5.375 3.765625 -5.21875 C 4.035156 -5.070312 4.253906 -4.890625 4.421875 -4.671875 L 4.484375 -4.671875 C 4.472656 -4.753906 4.457031 -4.878906 4.4375 -5.046875 C 4.425781 -5.222656 4.421875 -5.359375 4.421875 -5.453125 L 4.421875 -7.59375 L 5.296875 -7.59375 L 5.296875 0 L 4.59375 0 L 4.453125 -0.71875 L 4.421875 -0.71875 C 4.265625 -0.488281 4.050781 -0.296875 3.78125 -0.140625 C 3.507812 0.015625 3.164062 0.09375 2.75 0.09375 Z M 2.890625 -0.625 C 3.453125 -0.625 3.847656 -0.78125 4.078125 -1.09375 C 4.316406 -1.40625 4.4375 -1.875 4.4375 -2.5 L 4.4375 -2.65625 C 4.4375 -3.320312 4.320312 -3.832031 4.09375 -4.1875 C 3.875 -4.550781 3.46875 -4.734375 2.875 -4.734375 C 2.40625 -4.734375 2.050781 -4.539062 1.8125 -4.15625 C 1.570312 -3.78125 1.453125 -3.28125 1.453125 -2.65625 C 1.453125 -2.007812 1.570312 -1.507812 1.8125 -1.15625 C 2.050781 -0.800781 2.410156 -0.625 2.890625 -0.625 Z M 2.890625 -0.625 "/>
  <path id="glyph0-1" d="M 2.984375 0 L 0.40625 0 L 0.40625 -0.515625 L 1.234375 -0.703125 L 1.234375 -6.421875 L 0.40625 -6.625 L 0.40625 -7.140625 L 2.984375 -7.140625 L 2.984375 -6.625 L 2.140625 -6.421875 L 2.140625 -0.703125 L 2.984375 -0.515625 Z M 2.984375 0 "/>
  <path id="glyph0-0" d="M 0.9375 0 L 0.9375 -7.140625 L 5.046875 -7.140625 L 5.046875 0 Z M 1.453125 -0.515625 L 4.546875 -0.515625 L 4.546875 -6.625 L 1.453125 -6.625 Z M 1.453125 -0.515625 "/>
 </defs>
 <image width="497" height="279" id="image32" xlink:href="svg/8/45_2.jpg"/>
 <g>
  <path style="fill:#fdfdfa;fill-opacity:1;fill-rule:nonzero;stroke:#3f3f35;stroke-width:0.5;stroke-linecap:butt;stroke-linejoin:miter;stroke-miterlimit:4;stroke-opacity:1" transform="translate(379.07462,219.127)" d="m 3.749616,2.001906 c 0,0.964844 -0.78125,1.75 -1.75,1.75 -0.964844,0 -1.75,-0.785156 -1.75,-1.75 0,-0.96875 0.785156,-1.75 1.75,-1.75 0.96875,0 1.75,0.78125 1.75,1.75 z m 0,0"/>
  <path style="fill:none;stroke:#ffffff;stroke-width:3;stroke-linecap:butt;stroke-linejoin:round;stroke-miterlimit:10;stroke-opacity:0.6" transform="rotate(  340 382.824 221.129) translate(2.0898601)" d="m 356.60547,217.12891 h -2.57813 v -0.51563 l 0.82813,-0.1875 v -5.71875 l -0.82813,-0.20312 v -0.51563 h 2.57813 v 0.51563 l -0.84375,0.20312 v 5.71875 l 0.84375,0.1875 z m 0,0"/>
  <path style="fill:none;stroke:#ffffff;stroke-width:3;stroke-linecap:butt;stroke-linejoin:round;stroke-miterlimit:10;stroke-opacity:0.6" transform="rotate(  340 382.824 221.129) translate(2.0898601)" d="m 359.75781,217.22266 c -0.66797,0 -1.20312,-0.22657 -1.60937,-0.6875 -0.39844,-0.46875 -0.59375,-1.16016 -0.59375,-2.07813 0,-0.91406 0.20312,-1.60937 0.60937,-2.07812 0.40625,-0.46875 0.94141,-0.70313 1.60938,-0.70313 0.40625,0 0.73828,0.0781 1,0.23438 0.26953,0.14843 0.48828,0.32812 0.65625,0.54687 h 0.0625 c -0.0117,-0.082 -0.0274,-0.20703 -0.0469,-0.375 -0.0117,-0.17578 -0.0156,-0.3125 -0.0156,-0.40625 v -2.14062 h 0.875 v 7.59375 h -0.70313 l -0.14062,-0.71875 h -0.0312 c -0.15625,0.23046 -0.3711,0.42187 -0.64063,0.57812 -0.27344,0.15625 -0.61719,0.23438 -1.03125,0.23438 z m 0.14063,-0.71875 c 0.5625,0 0.95703,-0.15625 1.1875,-0.46875 0.23828,-0.3125 0.35937,-0.78125 0.35937,-1.40625 v -0.15625 c 0,-0.66407 -0.11719,-1.17579 -0.34375,-1.53125 -0.21875,-0.36329 -0.625,-0.54688 -1.21875,-0.54688 -0.46875,0 -0.82422,0.19531 -1.0625,0.57813 -0.24219,0.375 -0.35937,0.875 -0.35937,1.5 0,0.64843 0.11718,1.14843 0.35937,1.5 0.23828,0.35546 0.59766,0.53125 1.07813,0.53125 z m 0,0"/>
  <path style="fill:none;stroke:#ffffff;stroke-width:3;stroke-linecap:butt;stroke-linejoin:round;stroke-miterlimit:10;stroke-opacity:0.6" transform="rotate(  340 382.824 221.129) translate(2.0898601)" d="m 366.03516,211.67578 c 0.65625,0 1.14062,0.14844 1.45312,0.4375 0.3125,0.28125 0.46875,0.73438 0.46875,1.35938 v 3.65625 h -0.64062 l -0.17188,-0.76563 h -0.0312 c -0.24219,0.30469 -0.49219,0.52344 -0.75,0.65625 -0.25,0.13281 -0.60156,0.20313 -1.04687,0.20313 -0.49219,0 -0.89844,-0.125 -1.21875,-0.375 -0.32422,-0.25782 -0.48438,-0.66016 -0.48438,-1.20313 0,-0.53906 0.20703,-0.95312 0.625,-1.23437 0.42578,-0.28907 1.07813,-0.45313 1.95313,-0.48438 l 0.90625,-0.0312 v -0.3125 c 0,-0.44531 -0.10157,-0.75391 -0.29688,-0.92187 -0.1875,-0.17579 -0.46094,-0.26563 -0.8125,-0.26563 -0.28125,0 -0.54687,0.043 -0.79687,0.125 -0.25,0.0859 -0.49219,0.17969 -0.71875,0.28125 l -0.26563,-0.65625 c 0.23828,-0.13281 0.51563,-0.24219 0.82813,-0.32812 0.32031,-0.0937 0.65625,-0.14063 1,-0.14063 z m 1.0625,2.82813 -0.79688,0.0312 c -0.66797,0.0312 -1.13281,0.14062 -1.39062,0.32812 -0.25,0.1875 -0.375,0.44922 -0.375,0.78125 0,0.30469 0.0859,0.52734 0.26562,0.67188 0.1875,0.13671 0.42188,0.20312 0.70313,0.20312 0.45703,0 0.83593,-0.125 1.14062,-0.375 0.30078,-0.25 0.45313,-0.63281 0.45313,-1.15625 z m 0,0"/>
  <path style="fill:none;stroke:#ffffff;stroke-width:3;stroke-linecap:butt;stroke-linejoin:round;stroke-miterlimit:10;stroke-opacity:0.6" transform="rotate(  340 382.824 221.129) translate(2.0898601)" d="m 370.50391,209.53516 v 2.21875 c 0,0.27343 -0.0156,0.52343 -0.0469,0.75 h 0.0469 c 0.17578,-0.26954 0.41015,-0.47266 0.70312,-0.60938 0.30078,-0.14453 0.625,-0.21875 0.96875,-0.21875 0.65625,0 1.14453,0.15625 1.46875,0.46875 0.33203,0.3125 0.5,0.8125 0.5,1.5 v 3.48438 h -0.875 v -3.4375 c 0,-0.85157 -0.40234,-1.28125 -1.20312,-1.28125 -0.59375,0 -1.00782,0.17187 -1.23438,0.51562 -0.21875,0.33594 -0.32812,0.8125 -0.32812,1.4375 v 2.76563 h -0.89063 v -7.59375 z m 0,0"/>
  <path style="fill:none;stroke:#ffffff;stroke-width:3;stroke-linecap:butt;stroke-linejoin:round;stroke-miterlimit:10;stroke-opacity:0.6" transform="rotate(  340 382.824 221.129) translate(2.0898601)" d="m 380.46484,214.44141 c 0,0.88671 -0.23047,1.57421 -0.6875,2.0625 -0.44922,0.48046 -1.05468,0.71875 -1.8125,0.71875 -0.48047,0 -0.90625,-0.10157 -1.28125,-0.3125 -0.36718,-0.21875 -0.65625,-0.53516 -0.875,-0.95313 -0.21093,-0.41406 -0.3125,-0.92187 -0.3125,-1.51562 0,-0.88282 0.22266,-1.56641 0.67188,-2.04688 0.44531,-0.47656 1.05469,-0.71875 1.82812,-0.71875 0.47657,0 0.89844,0.10938 1.26563,0.32813 0.375,0.21093 0.66406,0.52343 0.875,0.9375 0.21875,0.40625 0.32812,0.90625 0.32812,1.5 z m -4.0625,0 c 0,0.63671 0.125,1.14062 0.375,1.51562 0.25,0.36719 0.64844,0.54688 1.20313,0.54688 0.53906,0 0.9375,-0.17969 1.1875,-0.54688 0.25,-0.375 0.375,-0.87891 0.375,-1.51562 0,-0.63282 -0.125,-1.12891 -0.375,-1.48438 -0.25,-0.36328 -0.65235,-0.54687 -1.20313,-0.54687 -0.54297,0 -0.9375,0.18359 -1.1875,0.54687 -0.25,0.35547 -0.375,0.85156 -0.375,1.48438 z m 0,0"/>
  <path style="fill:none;stroke:#ffffff;stroke-width:3;stroke-linecap:butt;stroke-linejoin:round;stroke-miterlimit:10;stroke-opacity:0.6" transform="rotate(  340 382.824 221.129) translate(2.0898601)" d="m 385.47656,217.12891 h -0.90625 v -7.14063 h 3.98438 v 0.79688 h -3.07813 v 2.53125 h 2.89063 v 0.78125 h -2.89063 z m 0,0"/>
  <path style="fill:none;stroke:#ffffff;stroke-width:3;stroke-linecap:butt;stroke-linejoin:round;stroke-miterlimit:10;stroke-opacity:0.6" transform="rotate(  340 382.824 221.129) translate(2.0898601)" d="m 391.66406,211.67578 c 0.65625,0 1.14063,0.14844 1.45313,0.4375 0.3125,0.28125 0.46875,0.73438 0.46875,1.35938 v 3.65625 h -0.64063 l -0.17187,-0.76563 h -0.0312 c -0.24219,0.30469 -0.49219,0.52344 -0.75,0.65625 -0.25,0.13281 -0.60157,0.20313 -1.04688,0.20313 -0.49219,0 -0.89844,-0.125 -1.21875,-0.375 -0.32422,-0.25782 -0.48437,-0.66016 -0.48437,-1.20313 0,-0.53906 0.20703,-0.95312 0.625,-1.23437 0.42578,-0.28907 1.07812,-0.45313 1.95312,-0.48438 l 0.90625,-0.0312 v -0.3125 c 0,-0.44531 -0.10156,-0.75391 -0.29687,-0.92187 -0.1875,-0.17579 -0.46094,-0.26563 -0.8125,-0.26563 -0.28125,0 -0.54688,0.043 -0.79688,0.125 -0.25,0.0859 -0.49219,0.17969 -0.71875,0.28125 l -0.26562,-0.65625 c 0.23828,-0.13281 0.51562,-0.24219 0.82812,-0.32812 0.32031,-0.0937 0.65625,-0.14063 1,-0.14063 z m 1.0625,2.82813 -0.79687,0.0312 c -0.66797,0.0312 -1.13282,0.14062 -1.39063,0.32812 -0.25,0.1875 -0.375,0.44922 -0.375,0.78125 0,0.30469 0.0859,0.52734 0.26563,0.67188 0.1875,0.13671 0.42187,0.20312 0.70312,0.20312 0.45703,0 0.83594,-0.125 1.14063,-0.375 0.30078,-0.25 0.45312,-0.63281 0.45312,-1.15625 z m 0,0"/>
  <path style="fill:none;stroke:#ffffff;stroke-width:3;stroke-linecap:butt;stroke-linejoin:round;stroke-miterlimit:10;stroke-opacity:0.6" transform="rotate(  340 382.824 221.129) translate(2.0898601)" d="m 396.13281,217.12891 h -0.89062 v -7.59375 h 0.89062 z m 0,0"/>
  <path style="fill:none;stroke:#ffffff;stroke-width:3;stroke-linecap:butt;stroke-linejoin:round;stroke-miterlimit:10;stroke-opacity:0.6" transform="rotate(  340 382.824 221.129) translate(2.0898601)" d="m 398.71484,217.12891 h -0.89062 v -7.59375 h 0.89062 z m 0,0"/>
  <path style="fill:none;stroke:#ffffff;stroke-width:3;stroke-linecap:butt;stroke-linejoin:round;stroke-miterlimit:10;stroke-opacity:0.6" transform="rotate(  340 382.824 221.129) translate(2.0898601)" d="m 403.90234,215.64453 c 0,0.52344 -0.19531,0.91797 -0.57812,1.1875 -0.38672,0.26172 -0.90625,0.39063 -1.5625,0.39063 -0.375,0 -0.69922,-0.0312 -0.96875,-0.0937 -0.27344,-0.0508 -0.51172,-0.12891 -0.71875,-0.23438 v -0.8125 c 0.21875,0.11719 0.47656,0.21875 0.78125,0.3125 0.30078,0.0859 0.60937,0.125 0.92187,0.125 0.44532,0 0.76953,-0.0703 0.96875,-0.21875 0.19532,-0.14453 0.29688,-0.33594 0.29688,-0.57812 0,-0.125 -0.0391,-0.23829 -0.10938,-0.34375 -0.0742,-0.11329 -0.20312,-0.22266 -0.39062,-0.32813 -0.1875,-0.10156 -0.46094,-0.22266 -0.8125,-0.35937 -0.34375,-0.13282 -0.64063,-0.26954 -0.89063,-0.40625 -0.25,-0.13282 -0.44531,-0.28907 -0.57812,-0.46875 -0.125,-0.1875 -0.1875,-0.42969 -0.1875,-0.73438 0,-0.44531 0.17969,-0.78906 0.54687,-1.03125 0.375,-0.25 0.85938,-0.375 1.45313,-0.375 0.33203,0 0.64062,0.0312 0.92187,0.0937 0.28125,0.0625 0.54688,0.15234 0.79688,0.26563 l -0.29688,0.6875 c -0.23047,-0.0937 -0.46875,-0.17188 -0.71875,-0.23438 -0.25,-0.0625 -0.50781,-0.0937 -0.76562,-0.0937 -0.35547,0 -0.63281,0.0586 -0.82813,0.17188 -0.1875,0.11718 -0.28125,0.27343 -0.28125,0.46875 0,0.14843 0.0391,0.27343 0.125,0.375 0.0937,0.10546 0.23828,0.21093 0.4375,0.3125 0.20703,0.0937 0.48438,0.21093 0.82813,0.34375 0.33203,0.125 0.61719,0.25781 0.85937,0.39062 0.23828,0.125 0.42188,0.28906 0.54688,0.48438 0.13281,0.1875 0.20312,0.42187 0.20312,0.70312 z m 0,0"/>
  <g style="fill:#212121;fill-opacity:1" transform=" rotate(  340 382.824 221.129) ">
   <use xlink:href="#glyph0-1" y="217.127" x="355.71"/>
   <use xlink:href="#glyph0-2" y="217.127" x="359.1"/>
   <use xlink:href="#glyph0-3" y="217.127" x="365.25"/>
   <use xlink:href="#glyph0-4" y="217.127" x="370.86"/>
   <use xlink:href="#glyph0-5" y="217.127" x="377.04"/>
   <use xlink:href="#glyph0-6" y="217.127" x="385.69"/>
   <use xlink:href="#glyph0-3" y="217.127" x="390.88"/>
   <use xlink:href="#glyph0-7" y="217.127" x="396.49"/>
   <use xlink:href="#glyph0-7" y="217.127" x="399.07"/>
   <use xlink:href="#glyph0-8" y="217.127" x="401.65"/>
  </g>
 </g>
</svg>

<svg xmlns="http://www.w3.org/2000/svg" xmlns:xlink="http://www.w3.org/1999/xlink" viewBox="0 0 497 279"> <defs overflow="visible" style="stroke:none">  <path id="h" d="M4.3-1.5c0 .5-.2 1-.5 1.2-.4.3-1 .4-1.6.4l-1-.1-.7-.2V-1l.8.3h1.8l.4-.7-.1-.4L3-2a7.5 7.5 0 0 0-.8-.4 7.5 7.5 0 0 1-1-.4l-.4-.5L.5-4c0-.5.2-.8.6-1 .3-.4.8-.6 1.4-.6l1 .2a4 4 0 0 1 .6.4l-.1.6-.8-.2-.7-.1-.9.1c-.2.2-.3.3-.3.6s0 .2.2.3l.4.3.8.3.9.4.4.5c.3.2.3.4.3.7Zm0 0"/>  <path id="g" d="M1.7 0H.8v-7.6h1Zm0 0"/>  <path id="f" d="M1.9 0h-1v-7.1H5v.8H2v2.5h2.8v.8h-3Zm0 0"/>  <path id="e" d="M5.5-2.7c0 .9-.2 1.7-.7 2-.4.7-1 .9-1.8.9-.5-.2-.9-.2-1.3-.4-.3-.2-.6-.6-.7-1C.6-1.6.5-2 .5-2.7c0-.9.3-1.6.7-2 .5-.5 1-.8 1.8-.8.5 0 1 .2 1.3.5.4 0 .7.4.9.9.2.2.3.7.3 1.3Zm-4 0c0 .7 0 1.2.3 1.5.3.4.7.6 1.2.6.6 0 1-.2 1.2-.6.3-.3.4-.8.4-1.5s-.1-1.1-.4-1.5c-.2-.3-.6-.5-1.2-.5-.5 0-1 .2-1.2.5-.2.4-.3.9-.3 1.5Zm0 0"/>  <path id="d" d="M1.7-7.6v3c.3-.4.4-.5.7-.6.3-.2.7-.3 1-.3.7 0 1.2.2 1.6.5.2.3.4.8.4 1.5V0h-.9v-3.4c0-.9-.4-1.3-1.2-1.3-.6 0-1 .2-1.2.5-.3.3-.4.8-.4 1.4V0H.8v-7.6Zm0 0"/>  <path id="c" d="M2.9-5.5c.6 0 1.1.2 1.4.5.3.3.5.7.5 1.3V0h-.6L4-.8c-.3.3-.5.6-.8.8h-1c-.5 0-1 0-1.3-.3C.6-.5.5-.9.5-1.5c0-.5.2-1 .5-1.2.5-.3 1-.5 2-.5h.8v-.3c.2-.5.2-.8-.2-1l-.8-.2H2l-.7.5L1-5l1-.3.9-.2Zm1 2.9h-.8c-.6 0-1 .1-1.4.3-.1.3-.3.5-.3.8 0 .3 0 .5.2.7l.7.2c.5 0 .9-.1 1.2-.4.3-.2.4-.6.4-1Zm.1 0"/>  <path id="b" d="M2.8 0C2 0 1.4 0 1-.5.7-1 .5-1.8.5-2.6c0-1.1.3-1.8.7-2.2.4-.5.8-.7 1.6-.7.4 0 .7.1 1 .3a2 2 0 0 1 .6.5v-2.8h.9V0h-.7l-.1-.7a2 2 0 0 1-.8.6l-.9.1Zm0-.5c.8-.1 1.1-.3 1.4-.6.1-.3.2-.8.2-1.4v-.2c0-.6 0-1.1-.3-1.5-.2-.4-.6-.5-1.2-.5-.5 0-.9.2-1 .5-.4.4-.5 1-.5 1.5.1.7.1 1.2.4 1.5.3.4.6.6 1 .6Zm.1-.1"/>  <path id="a" d="M3 0H.4v-.5l.8-.2v-5.7l-.8-.2v-.5H3v.5l-1 .2v5.7l1 .2Zm0 0"/>  <path d="M1 0v-7.1h4V0Zm.4-.5h3.1v-6.1h-3Zm.1 0"/> </defs> <image xlink:href="svg/8/45_2.jpg" width="497" height="279"/> <path d="M3.7 2A1.7 1.7 0 1 1 .3 2a1.7 1.7 0 0 1 3.4 0zm0 0" style="fill:#fdfdfa;fill-opacity:1;fill-rule:nonzero;stroke:#3f3f35;stroke-width:.5;stroke-linecap:butt;stroke-linejoin:miter;stroke-miterlimit:4;stroke-opacity:1" transform="translate(379.07462,219.127)"/> <path d="M356.6 217.1H354v-.5l1-.2v-5.7l-1-.2v-.5h2.6v.5l-.8.2v5.7l.8.2zm3.2.1c-.8 0-1.2-.2-1.8-.7-.3-.4-.4-1.1-.4-2 0-1 .2-1.7.6-2.1.4-.5 1-.7 1.6-.7.4 0 .7 0 1 .2a2 2 0 0 1 .6.6v-3h.9v7.6h-.7l-.1-.7a2 2 0 0 1-.8.6l-.9.2zm.1-.7c.6 0 1-.2 1.2-.5.2-.3.3-.7.3-1.4v-.1c0-.7 0-1.2-.3-1.6-.2-.3-.6-.5-1.2-.5-.5 0-.9.2-1 .6-.4.3-.5.8-.5 1.5.1.5.1 1.1.4 1.5.3.3.6.5 1.2.5zm6.1-4.8c.7 0 1.2.1 1.5.3.3.4.5.8.5 1.5v3.5h-.7l-.2-.6-.7.6c-.4.2-.6.2-1 .2-.7 0-1.1-.1-1.4-.4-.2-.2-.4-.6-.4-1.2 0-.5.2-1 .6-1.2.5-.3 1.1-.4 2-.4h.8v-.4c.1-.6 0-.8-.2-1l-.8-.1h-.8l-.7.3-.3-.7.8-.3 1-.1zm1.1 2.8h-.8c-.7 0-1.1.2-1.4.5-.2 0-.4.3-.4.6 0 .4.1.6.3.7.2.2.4.2.7.2.5 0 .8-.1 1.1-.4.4-.1.5-.6.5-1.1zm3.4-5v3c.2-.3.4-.5.7-.6.3-.2.6-.2 1-.2.6 0 1.1.1 1.4.3.4.5.5 1 .5 1.6v3.5h-.8v-3.4c0-.9-.4-1.3-1.3-1.3-.5 0-1 .2-1.2.6-.2.3-.3.7-.3 1.4v2.6h-.9v-7.5zm10 4.9c0 1-.3 1.6-.7 2.1-.5.5-1 .7-1.8.7-.5 0-1 0-1.3-.2-.4-.3-.7-.6-.9-1-.2-.4-.3-1-.3-1.5 0-.9.2-1.5.7-2.1.4-.5 1-.7 1.8-.7.5 0 .9 0 1.3.3.3.2.6.5.7 1 .4.2.5.7.5 1.3zm-4.1 0c0 .7.1 1.2.4 1.6.2.3.6.5 1.2.5.5 0 1-.2 1.2-.5.2-.4.3-1 .3-1.6 0-.6 0-1-.3-1.4-.3-.4-.7-.6-1.2-.6-.6 0-1 .2-1.2.6-.3.3-.4.8-.4 1.4zm9.1 2.7h-1V210h4.1v.8h-3v2.5h2.8v.8h-3zm6.2-5.4c.6 0 1.1.1 1.3.3.4.4.6.8.6 1.5v3.5h-.7l-.1-.6c-.4.3-.6.5-.8.6-.3.2-.6.2-1 .2-.6 0-1-.1-1.4-.4-.2-.2-.4-.6-.4-1.2 0-.5.2-1 .8-1.2.3-.3.9-.4 1.9-.4h.7v-.4c.1-.6.1-.8-.2-1l-.8-.1h-.8l-.7.3-.3-.7.9-.3 1-.1zm1 2.8h-.7c-.7 0-1.2.2-1.5.5-.2 0-.3.3-.3.6 0 .4 0 .6.2.7.2.2.6.2.7.2.5 0 .9-.1 1.2-.4.3-.1.4-.6.4-1.1zm3.4 2.6h-.9v-7.6h1zm2.6 0h-.9v-7.6h1zm5.2-1.5c0 .6-.2 1-.6 1.2-.3.3-.9.4-1.5.4h-1l-.8-.4v-.8l.9.4.9.1c.4 0 .7 0 1-.2l.2-.6v-.3l-.6-.4a7.5 7.5 0 0 0-.7-.3 7.5 7.5 0 0 1-.9-.4l-.5-.5c-.3-.2-.3-.4-.3-.7 0-.5.3-.8.6-1.1.4-.2.9-.3 1.5-.3h.9a4 4 0 0 1 .8.3l-.3.7-.7-.2-.8-.1c-.3 0-.6 0-.8.2-.2 0-.3.2-.3.4l.1.4.5.3.8.4c.3-.1.6.2.9.4.2 0 .4.2.5.4l.2.7zm0 0" style="fill:none;stroke:#fff;stroke-width:3;stroke-linecap:butt;stroke-linejoin:round;stroke-miterlimit:10;stroke-opacity:.6" transform="rotate(  340 382.824 221.129) translate(2.0898601)"/> <g style="fill:#212121;fill-opacity:1" transform=" rotate(  340 382.824 221.129) ">  <use xlink:href="#a" x="355.7" y="217.1"/>  <use xlink:href="#b" x="359.1" y="217.1"/>  <use xlink:href="#c" x="365.3" y="217.1"/>  <use xlink:href="#d" x="370.9" y="217.1"/>  <use xlink:href="#e" x="377" y="217.1"/>  <use xlink:href="#f" x="385.7" y="217.1"/>  <use xlink:href="#c" x="390.9" y="217.1"/>  <use xlink:href="#g" x="396.5" y="217.1"/>  <use xlink:href="#g" x="399.1" y="217.1"/>  <use xlink:href="#h" x="401.6" y="217.1"/> </g></svg>
